src/assets/images/template_image/13.svg

<svg width="48" height="48" viewBox="0 0 48 48" fill="none" xmlns="http://www.w3.org/2000/svg"><path opacity=".2" d="M24 46C36.1503 46 46 36.1503 46 24 46 11.8497 36.1503 2 24 2 11.8497 2 2 11.8497 2 24 2 36.1503 11.8497 46 24 46z" fill="#62c378"/><path d="M26.25 13h-9C16.0125 13 15.0112 13.99 15.0112 15.2L15 32.8C15 34.01 16.0013 35 17.2388 35H30.75C31.9875 35 33 34.01 33 32.8V19.6L26.25 13zM28.5 30.6h-9V28.4h9V30.6zM28.5 26.2h-9V24h9V26.2zm-3.375-5.5V14.65L31.3125 20.7H25.125z" fill="#62c378"/></svg>

<svg width="48" height="48" fill="none" xmlns="http://www.w3.org/2000/svg"><path opacity=".2" d="M24 46c12.15 0 22-9.85 22-22S36.15 2 24 2 2 11.85 2 24s9.85 22 22 22z" fill="#62c378"/><path d="M26.25 13h-9c-1.238 0-2.239.99-2.239 2.2L15 32.8c0 1.21 1.001 2.2 2.239 2.2H30.75c1.238 0 2.25-.99 2.25-2.2V19.6L26.25 13zm2.25 17.6h-9v-2.2h9v2.2zm0-4.4h-9V24h9v2.2zm-3.375-5.5v-6.05l6.188 6.05h-6.188z" fill="#62c378"/></svg>
